components/Modals/images/facebook.svg

<?xml version="1.0" encoding="UTF-8" standalone="no"?>
<svg width="8px" height="16px" viewBox="0 0 8 16" version="1.1" xmlns="http://www.w3.org/2000/svg" xmlns:xlink="http://www.w3.org/1999/xlink">
    <!-- Generator: Sketch 3.8.2 (29753) - http://www.bohemiancoding.com/sketch -->
    <title>Shape</title>
    <desc>Created with Sketch.</desc>
    <defs></defs>
    <g id="Desktop-design" stroke="none" stroke-width="1" fill="none" fill-rule="evenodd">
        <g id="Log-in" transform="translate(-892.000000, -666.000000)" fill="#0070D3">
            <g id="iconmonstr-facebook-1" transform="translate(892.000000, 666.000000)">
                <path d="M2,5.33333333 L0,5.33333333 L0,8 L2,8 L2,16 L5.33333333,16 L5.33333333,8 L7.76133333,8 L8,5.33333333 L5.33333333,5.33333333 L5.33333333,4.222 C5.33333333,3.58533333 5.46133333,3.33333333 6.07666667,3.33333333 L8,3.33333333 L8,0 L5.46133333,0 C3.064,0 2,1.05533333 2,3.07666667 L2,5.33333333 L2,5.33333333 Z" id="Shape"></path>
            </g>
        </g>
    </g>
</svg>

<svg width="8" height="16" viewBox="0 0 8 16" xmlns="http://www.w3.org/2000/svg"><path d="M2 5.333h-2v2.667h2v8h3.333v-8h2.428l.239-2.667h-2.667v-1.111c0-.637.128-.889.743-.889h1.923v-3.333h-2.539c-2.397 0-3.461 1.055-3.461 3.077v2.257z" fill="#0070D3"/></svg>
